X: 8287
T: Corner House, The
R: reel
M: 4/4
K: Amajor
|:A3c BAFA|EcBA FAEC|A,C EC EF AE|Ac ef eB ~B2|
A2 (3cBA BAFA|EcBA FAEC|A,C EC EF AB|1 ce dB cA AB:|2 ce dB cA Ae||
|:ceec e3a|fdad fdad|ceee afec|dBBA GBEB|
ceee eaga|fd~d2 Adfd|ceee ~a2 af|geaf gedB:|

